X: 227
T: Two White Buffalo
C: Teton Sioux band 1911-1914
N: Derived from sioux222.krn
O: South Dakota, U.S.A.
N: Teton Sioux Music by Frances Densmore, 1918
Z: transcribed to **kern format by Craig Sapp
L: 1/8
M: 3/4
Q: 1/4=58
K: C clef=treble
%%linebreak <none>
{/B,} A A A B (3B A A | 
E4E2 | 
E A A< E D D | 
C< D D E E/ D3/ | 
C C C< B, B, B, | 
B,6 ||  
[M:2/4]B,< D D E | 
E< D C C ||  
[M:3/4]B,< C C D D/ C3/ ||  
[M:2/4]C< B, B, B, | 
B,4 ||  
[M:3/4]B,6 | 
B,< E E< E E A | 
A/ E/ E D< D D D | 
C< D D< D D E ||  
[M:2/4]E< D C C | 
C< B, B, B, ||  
[M:3/4]C6 ||  
[M:2/4]B,< D D E | 
E< D C C ||  
[M:3/4]B,< C C< C C D | 
D< C C< B, B, B, | 
B,6 | 
B,6 |]  



